X:95
T:Miss Burchell's Humour THO1.095
M:2/4
L:1/8
Z:vmp. Peter Dunk 2012.from a transcription by Fynn Titford-Mock 2006
B:Thompson's Compleat Collection of 200 Favourite Country Dances Vol.I,1758
Q:1/4=140
U:w=!wedge!
K:A
e3 f|(ec) (BA)|(GA) (Bc)| {c}TB4|e3 f|(ec) (BA)|\
E2A2|A4::we(cBA)|we(cBA)|(cd) (ef)|Te3 a|
we(cBA)|we(cBA)|(GA) (Bc)| {c}TB4|we(cBA)|\
we(cBA)|e3 a|Te3 f|(ec) (BA)|E2A2|A4:|

